X: 27
T:Dougie and Malcolm
M:6/8
L:1/8
C:Jerry Holland
R:Jig
K:D
"D"f3 "G"g2b|"D"afd dcd|"A"ecA ABc|"D"dcd "A"efg|"D"f3 "G"g2b|"D"afd dcd
|!"A"ecA ABc|1 "D"d3 de/f/g:||
2 "D"d3 d||K:A cd| "A"ecA EAc|"D"fed "A"cea|"E"gbg egb|!"D"fed "E7"c2d|"
A"ec
A EAc|"D"fed "A"cea|"E"gbg efg|1 "A"a3 a:||2"A"aba "A7"=gag||
